X:100
T:Mrs. Grace Tait
R:Reel
M:C|
%%printtempo 0
Q:180
K:D
G|\
"D"faab abdF| ABdf "A"{/g}e2(dB) |"D"(AB)df "A"{gf}edef| "D"abaf "G"ed(BA)|
"D"FAAB ABdF| "D"ABdf {/g}e2(dB)| "D"(AB)df {gf}e2(dB)| "D"ABdf "G"{/g}edef| "A"abaf "D"d/d/d d||
f|\
"D"abaf defd| "G"edef {gf}e2(dB)| "D"ABdf {/g}edef| "A"abaf e/e/e (ef)|
"D"abaf defd| "G"edef {gf}e2(dB)| "D"ABdf {/g}edef| "A"abaf d/d/d d|
